src/govuk-pub/assets/images/components/action-link/action-link-arrow.svg

<svg fill="none" height="39" viewBox="0 0 39 39" width="39" xmlns="http://www.w3.org/2000/svg"><circle cx="19.5" cy="19.5" fill="#fff500" r="19.5"/><g clip-rule="evenodd" fill="#272828" fill-rule="evenodd"><path d="m24.0343 20-9.8531-9.8531 2.8284-2.82842 12.6816 12.68152-12.6816 12.6815-2.8284-2.8284z"/><path d="m.00042378 18h25.13237622v4h-25.13237657z"/></g></svg>

<svg width="39" height="39" viewBox="0 0 39 39" fill="none" xmlns="http://www.w3.org/2000/svg">
<circle cx="19.5" cy="19.5" r="19.5" fill="#fff500"/>
<path fill-rule="evenodd" clip-rule="evenodd" d="M24.0343 20L14.1812 10.1469L17.0096 7.31848L29.6912 20L17.0096 32.6815L14.1812 29.8531L24.0343 20Z" fill="#272828"/>
<path fill-rule="evenodd" clip-rule="evenodd" d="M0.000423781 18L25.1328 18L25.1328 22L0.000423431 22L0.000423781 18Z" fill="#272828"/>
</svg>
